X:1
T:Come heavy sleep
T:John Dowland
T:Come heavy sleep
T:Copyright © 
T:Copyright © 
T:Copyright © 
T:Copyright © 
T:Copyright © 
C:John Dowland
Z:Copyright ©
%%score [ 1 2 3 4 ]
L:1/8
M:2/2
K:G
V:1 treble nm="Soprano" snm="S."
V:2 treble nm="Alto" snm="A."
V:3 treble-8 transpose=-12 nm="Tenor" snm="T."
V:4 bass nm="Bass" snm="B."
V:1
 z4 B4- | B4 d4- | d4 A4 | G6 z2 | z2 c2 B2 A2 | B4 ^c4 | d6 z2 | z2 B2 c2 d2 | e8- | e2 dc B2 c2 | %10
w: Come|_ hea-|* vy|sleep,|the i- mage|of true|death:|and close _|up|_ these _ _ my|
 d8- | d2 d2 c2 B2 | A8 | z2 c2 B2 A2 | G3 E G2 A2 | B6 A2 | ^G8 | z2 G2 B2 ^c2 | d4 B2 c2- | %19
w: wea-|* ry wee- ping|eyes,|whose spring of|tears doth stop my|vi- tal|breath,|and tears my|heart with sor-|
 c2 G2 A2 A2 | G6 z2 || z2 B4 FF | F2 F2 B3 F | ^G2 A3 B c2 | B6 z2 | z2 G2 B2 ^c2 | d3 D F2 G2 | %27
w: * row's sigh- swoll'n|cries:|Come and pos-|sess my ti- red|thought- worn _ _|soul,|that li- ving|dies, that li- ving|
 A3 A c2 d2 | e3 z z2 B2 | d8- | d6 G2 | A6 A2 | G8 || z4 B4- | B4 d4- | d4 A4 | G8 | z2 c2 B2 A2 | %38
w: dies, that li- ving|dies, till|thou|_ on|me be|stole.|Come|_ sha-|* dow|of|my end, and|
 B4 ^c4 | d6 z2 | z2 B2 c2 d2 | e8- | e2 dc B2 c2 | d8- | d2 d2 c2 B2 | A8 | z2 c2 B2 A2 | %47
w: shape of|rest,|al- lied to|death,|_ _ _ _ child|to|_ his black- fac'd|night:|Come thou and|
 G3 E G2 A2 | B6 A2 | ^G8 | z2 G2 B2 ^c2 | d4 B2 c2- | c2 G2 A2 A2 | G6 z2 |: z2 B4 FF | F4 B3 F | %56
w: charm these re- bels|in my|breast|whose wa- king|fan- cies do|_ my mind af-|fright.|O come sweet|sleep, come or|
 ^G2 A3 B c2 | B6 z2 | z2 G2 B2 ^c2 | d3 D F2 G2 | A3 A c2 d2 | e4 z2 B2 | d8- | d6 G2 | A6 A2 | %65
w: I die for e-|ver,|come ere my|last, come ere my|last, come ere my|last sleep|comes|_ or|come ne-|
 G8 :| %66
w: ver.|
V:2
 G8 | G8- | G4 F4 | G6 z2 | G6 FE | D4 G4 | F6 z2 | G6 F2 | E4 c4- | c2 BA G2 A2 | B4 A4 | %11
w: Come|hea-|* vy|sleep,|the i- mage|of true|death:|and _|close up|_ these _ _ my|wea- ry,|
 G3 F E2 G2 | F8 | z2 E2 D2 C2 | B,4 E2 EE | E4 ^D4 | E8 | z2 D2 G3 G | F4 G2 E2- | E2 B,2 D2 D2 | %20
w: wea- ry wee- ping|eyes,|whose spring of|tears doth stop my|vi- tal|breath,|and tears my|heart with sor-|* row's sigh- swoll'n|
 D6 z2 || ^D6 DD | ^D2 D2 D3 D | E2 E6 | E6 z2 | z2 D2 G3 G | F4 z2 D2 | E6 A2 | ^G3 z z2 =G2- | %29
w: cries:|Come and pos-|sess my ti- red|thought- worn|soul,|that li- ving|dies, that|li- ving|dies, till|
 G2 D2 G4 | F4 D4 | D6 C2 | B,8 || G8 | G8- | G4 F4 | G4 G4 | G6 FE | D4 G4 | F6 z2 | G6 F2 | %41
w: * thou on|me, on|me be|stole.|Come|sha-|* dow|of my|end and _|shape of|rest,|al- *|
 E4 c4- | c2 BA G2 A2 | B4 A4 | G3 F E2 G2 | F8 | z2 E2 D2 C2 | B,4 E2 EE | E4 ^D4 | E8 | %50
w: lied to|_ _ _ _ _|death, child|to his black- fac'd|night:|Come thou and|charm these re- bels|in my|breast,|
 z2 D2 G3 G | F4 G2 E2- | E2 B,2 D2 D2 | D6 z2 |: ^D6 DD | ^D2 D4 DD | E4 E2 E2 | E6 z2 | %58
w: whose wa- king|fan- cies do|_ my mind af-|fright.|O come sweet|sleep, come or I|die for e-|ver,|
 z2 D2 G3 G | F4 z2 D2 | E6 A2 | ^G4 z2 =G2- | G2 D2 G4 | F4 D4 | D6 C2 | B,8 :| %66
w: come ere my|last, come|ere my|last sleep|_ comes, or|come, or|come ne-|ver.|
V:3
 d8- | d4 B2 B2 | A4 d3 c | B6 z2 | e3 f g4- | g2 d2 e2 e2 | A6 z2 | B2 G2 A2 B2 | c2 BA G4- | %9
w: Come|_ hea- vy|sleep, hea- vy|sleep,|the _ i-|* mage of true|death:|and close _ up|these my _ wea-|
 G2 d4 c2 | B4 c4 | d4 G4 | d8 | z4 e4- | e2 dc B2 A2 | G2 FE F2 F2 | E4 B4 | B6 G2 | A2 d4 cB | %19
w: * ry, wea-|* ry|wee- ping|eyes,|whose|_ spring of tears doth|stop my _ vi- tal|breath, and|tears my|heart with sor- *|
 A2 G2 G2 F2 | G6 z2 || F6 BB | B2 B2 F3 B | B2 c3 B A2 | ^G6 z2 | z2 B2 d2 e2 | A6 B2 | c6 BA | %28
w: * row's sigh- swoll'n|cries:|Come and pos-|sess my ti- red|thought- worn _ _|soul,|that li- ving|dies, that|li- ving _|
 B3 z z2 d2- | d2 B4 AG | A4 G4- | G2 FE F4 | G8 || d8- | d4 B2 B2 | A4 d3 c | B8 | e3 f g4- | %38
w: dies, till|_ thou on _|me, on|_ me _ be|stole.|Come|_ sha- dow|of, sha- dow|of|my _ end|
 g2 d2 e2 e2 | A6 z2 | B2 G2 A2 B2 | c2 BA G4- | G2 d4 c2 | B4 c4 | d4 G4 | d8 | z4 e4- | %47
w: * and shape of|rest,|al- lied _ to|death, child _ to|_ his, child|to his|black- fac'd|night:|come|
 e2 dc B2 A2 | G2 FE F2 F2 | E4 B4 | B6 G2 | A2 d4 cB | A2 G2 G2 F2 | G6 z2 |: F6 BB | B2 B2 F3 B | %56
w: _ thou and charm these|re- bels _ in my|breast, whose|wa- king|fan- cies do _|_ my mind af-|fright.|O come sweet|sleep, come or I|
 B2 c3 B A2 | ^G6 z2 | z2 B2 d2 e2 | A6 B2 | c6 BA | B4 z2 d2- | d2 B4 AG | A4 G4- | G2 FE F4 | %65
w: die, die for e-|ver,|come ere my|last, come|ere my *|last sleep|_ comes or _|come, or|_ come _ ne-|
 G8 :| %66
w: ver.|
V:4
 G,,8 | G,8 | D,8 | G,,6 z2 | C,3 D, E,2 F,2 | G,4 E,4 | D,6 z2 | G,8 | C,2 D,2 E,2 F,2 | G,8 | %10
w: Come|hea-|vy|sleep,|the _ i- mage|of true|death:|and|close _ _ up|these|
 G,,4 A,,2 A,,2 | B,,4 C,4 | D,2 D,2 D,2 D,2 | A,,6 A,,2 | E,4 E,4 | E,4 B,,4 | E,6 E,2 | %17
w: my wea- ry|wee- ping|eyes, whose spring of|tears doth|stop my|vi- tal|breath, and|
 G,4 z G, F,E, | D,4 G,2 C,2- | C,2 E,2 D,2 D,2 | G,,6 z2 || B,,6 B,,B,, | B,,2 B,,2 B,,3 B,, | %23
w: tears and tears my|heart with sor-|* row's sigh- swoll'n|cries:|Come and pos-|sess my ti- red|
 E,2 A,,6 | E,6 z2 | G,6 F,E, | D,4 z D, C,B,, | A,,2 A,4 G,=F, | E,3 z G,4 | G,4 z G, F,E, | %30
w: thought- worn|soul,|that li- ving|dies, that li- ving|dies, that li- ving|dies, till|thou, till thou on|
 D,3 D, B,,4 | D,8 | G,,8 || G,,8 | G,8 | D,8 | G,,8 | C,3 D, E,2 F,2 | G,4 E,4 | D,6 z2 | G,8 | %41
w: me, on me|be|stole.|Come|sha-|dow|of|my _ end and|shape of|rest,|al-|
 C,2 D,2 E,2 F,2 | G,8 | G,,4 A,,2 A,,2 | B,,4 C,4 | D,2 D,2 D,2 D,2 | A,,6 A,,2 | E,4 E,4 | %48
w: lied _ _ to|death,|child to his|black- fac'd|night: come thou and|charm these|re- bels|
 E,4 B,,4 | E,6 E,2 | G,4 z G, F,E, | D,4 G,2 C,2- | C,2 E,2 D,2 D,2 | G,,6 z2 |: B,,6 B,,B,, | %55
w: in my|breast, whose|wake, whose wa- king|fan- cies do|_ my mind af-|fright.|O come sweet|
 B,,2 B,,2 B,,3 B,, | E,2 A,,4 A,,2 | E,6 z2 | G,6 F,E, | D,4 z D, C,B,, | A,,2 A,4 G,=F, | %61
w: sleep, come or I|die for e-|ver,|come ere my|last, come ere my|last, come ere my|
 E,4 G,4 | G,4 z G, F,E, | D,3 D, B,,4 | D,8 | G,,8 :| %66
w: last sleep|comes, my last sleep|comes, or come|ne-|ver.|

